packages/assets/static/images/icons/zoomin.svg

<svg width="24" height="24" viewBox="0 0 24 24" xmlns="http://www.w3.org/2000/svg">
<path d="M14.25 10.5C14.25 10.6989 14.171 10.8896 14.0303 11.0303C13.8896 11.171 13.6989 11.25 13.5 11.25H11.25V13.5C11.25 13.6989 11.171 13.8896 11.0303 14.0303C10.8896 14.171 10.6989 14.25 10.5 14.25C10.3011 14.25 10.1103 14.171 9.96964 14.0303C9.82899 13.8896 9.74997 13.6989 9.74997 13.5V11.25H7.49997C7.30106 11.25 7.11029 11.171 6.96964 11.0303C6.82899 10.8896 6.74997 10.6989 6.74997 10.5C6.74997 10.3011 6.82899 10.1103 6.96964 9.96964C7.11029 9.82899 7.30106 9.74997 7.49997 9.74997H9.74997V7.49997C9.74997 7.30106 9.82899 7.11029 9.96964 6.96964C10.1103 6.82899 10.3011 6.74997 10.5 6.74997C10.6989 6.74997 10.8896 6.82899 11.0303 6.96964C11.171 7.11029 11.25 7.30106 11.25 7.49997V9.74997H13.5C13.6989 9.74997 13.8896 9.82899 14.0303 9.96964C14.171 10.1103 14.25 10.3011 14.25 10.5ZM21.5306 21.5306C21.4609 21.6003 21.3782 21.6556 21.2872 21.6934C21.1961 21.7311 21.0985 21.7506 21 21.7506C20.9014 21.7506 20.8038 21.7311 20.7128 21.6934C20.6217 21.6556 20.539 21.6003 20.4693 21.5306L15.7762 16.8365C14.1428 18.1971 12.0478 18.8755 9.92691 18.7307C7.80604 18.5859 5.82265 17.629 4.38932 16.0591C2.95599 14.4892 2.18308 12.4271 2.23138 10.3019C2.27968 8.17663 3.14547 6.15181 4.64864 4.64864C6.15181 3.14547 8.17663 2.27968 10.3019 2.23138C12.4271 2.18308 14.4892 2.95599 16.0591 4.38932C17.629 5.82265 18.5859 7.80604 18.7307 9.92691C18.8755 12.0478 18.1971 14.1428 16.8365 15.7762L21.5306 20.4693C21.6003 20.539 21.6556 20.6217 21.6934 20.7128C21.7311 20.8038 21.7506 20.9014 21.7506 21C21.7506 21.0985 21.7311 21.1961 21.6934 21.2872C21.6556 21.3782 21.6003 21.4609 21.5306 21.5306ZM10.5 17.25C11.835 17.25 13.14 16.8541 14.2501 16.1124C15.3601 15.3707 16.2253 14.3165 16.7362 13.0831C17.2471 11.8497 17.3807 10.4925 17.1203 9.18311C16.8598 7.87374 16.2169 6.671 15.2729 5.727C14.3289 4.78299 13.1262 4.14012 11.8168 3.87967C10.5075 3.61922 9.15026 3.75289 7.91686 4.26378C6.68346 4.77467 5.62925 5.63984 4.88755 6.74987C4.14585 7.8599 3.74997 9.16495 3.74997 10.5C3.75196 12.2896 4.46375 14.0053 5.72919 15.2708C6.99463 16.5362 8.71037 17.248 10.5 17.25Z"/>
</svg>

<svg viewBox="0 0 24 24" xmlns="http://www.w3.org/2000/svg" aria-hidden="true" fill="currentColor"><path d="M14.25 10.5a.75.75 0 0 1-.75.75h-2.25v2.25a.75.75 0 0 1-1.5 0v-2.25H7.5a.75.75 0 1 1 0-1.5h2.25V7.5a.75.75 0 0 1 1.5 0v2.25h2.25a.75.75 0 0 1 .75.75m7.28 11.03a.75.75 0 0 1-1.06 0l-4.694-4.693a8.26 8.26 0 1 1 1.06-1.06l4.695 4.692a.75.75 0 0 1 0 1.062M10.5 17.25a6.75 6.75 0 1 0-6.75-6.75 6.76 6.76 0 0 0 6.75 6.75"/></svg>
